OBS Studio/Fluent Dark Grey/warning.svg

<svg width="24" height="24" fill="none" viewBox="0 0 24 24" xmlns="http://www.w3.org/2000/svg"><path d="m12.997 17c0-0.5516-0.4471-0.9987-0.9986-0.9987-0.5516 0-0.9987 0.4471-0.9987 0.9987 0 0.5515 0.4471 0.9986 0.9987 0.9986 0.5515 0 0.9986-0.4471 0.9986-0.9986zm-0.2592-7.8533c-0.0499-0.36604-0.3639-0.64794-0.7436-0.64764-0.4143 3.3e-4 -0.7498 0.33639-0.7494 0.7506l0.0036 4.5016 0.0069 0.1017c0.0499 0.3661 0.364 0.648 0.7437 0.6477 0.4142-4e-4 0.7497-0.3364 0.7494-0.7506l-0.0036-4.5016-7e-3 -0.10176zm1.2292-5.4878c-0.8562-1.5478-3.0814-1.5478-3.9376 5e-5l-7.7453 14.001c-0.82955 1.4996 0.25507 3.3391 1.9688 3.3391h15.491c1.7138 0 2.7984-1.8395 1.9688-3.3392l-7.7458-14.001zm-2.6251 0.72613c0.2854-0.51594 1.0272-0.51595 1.3126-2e-5l7.7457 14.002c0.2766 0.4998-0.085 1.113-0.6562 1.113h-15.491c-0.57127 0-0.9328-0.6132-0.65629-1.113l7.7453-14.001z" fill="#fff"/></svg>

<svg width="24" height="24" viewBox="0 0 24 24" fill="none" xmlns="http://www.w3.org/2000/svg">
<path d="M12.9973 17C12.9973 16.4484 12.5502 16.0013 11.9987 16.0013C11.4471 16.0013 11 16.4484 11 17C11 17.5515 11.4471 17.9986 11.9987 17.9986C12.5502 17.9986 12.9973 17.5515 12.9973 17ZM12.7381 9.1467C12.6882 8.78066 12.3742 8.49876 11.9945 8.49906C11.5802 8.49939 11.2447 8.83545 11.2451 9.24966L11.2487 13.7513L11.2556 13.853C11.3055 14.2191 11.6196 14.501 11.9993 14.5007C12.4135 14.5003 12.749 14.1643 12.7487 13.7501L12.7451 9.24846L12.7381 9.1467ZM13.9673 3.65888C13.1111 2.11108 10.8859 2.1111 10.0297 3.65893L2.28438 17.6604C1.45483 19.16 2.53945 20.9995 4.25323 20.9995H19.7443C21.4581 20.9995 22.5427 19.16 21.7131 17.6603L13.9673 3.65888ZM11.3422 4.38501C11.6276 3.86907 12.3694 3.86906 12.6548 4.38499L20.4005 18.3865C20.6771 18.8863 20.3155 19.4995 19.7443 19.4995H4.25323C3.68196 19.4995 3.32043 18.8863 3.59694 18.3865L11.3422 4.38501Z" fill="white"/>
</svg>
